X: 122
M: 6/8
L: 1/8
K: D
ded def | !+!e2d e2A | e[fd]e efg | !+!f2e f2A |\
fgf fga | g2f e2e | eae edc | B2A A2 :|
|: a |\
aba aba | agf g2e | gag gag | gfe f2d |\
fgf fgf | fe^d e2a | dcd efg | e3 d2 :|

